assets/img/braze_icons/microphone-off-02.svg

<svg fill="none" height="24" viewBox="0 0 24 24" width="24" xmlns="http://www.w3.org/2000/svg"><g fill="#801ed7"><path clip-rule="evenodd" d="m2.70711 1.29289c-.39053-.390521-1.02369-.390521-1.41422 0-.390521.39053-.390521 1.02369 0 1.41422l5.70711 5.7071v4.58579c0 2.7615 2.23858 5 5 5 1.2758 0 2.4397-.4783 3.3223-1.2635l1.4161 1.4161c-1.2475 1.148-2.9109 1.8474-4.7384 1.8474-3.86599 0-7-3.134-7-7v-1c0-.5523-.44772-1-1-1s-1 .4477-1 1v1c0 4.9706 4.02944 9 9 9 2.3801 0 4.5449-.9248 6.1535-2.4323l3.1394 3.1394c.3905.3905 1.0237.3905 1.4142 0s.3905-1.0237 0-1.4142z" fill-rule="evenodd"/><path d="m17 12.7574-8.894-8.89404c.91654-1.1364 2.3204-1.86336 3.894-1.86336 2.7614 0 5 2.23858 5 5z"/></g></svg>

<svg width="24" height="24" viewBox="0 0 24 24" fill="none" xmlns="http://www.w3.org/2000/svg">
<path fill-rule="evenodd" clip-rule="evenodd" d="M2.70711 1.29289C2.31658 0.902369 1.68342 0.902369 1.29289 1.29289C0.902369 1.68342 0.902369 2.31658 1.29289 2.70711L7 8.41421V13C7 15.7615 9.23858 18 12 18C13.2758 18 14.4397 17.5217 15.3223 16.7365L16.7384 18.1526C15.4909 19.3006 13.8275 20 12 20C8.13401 20 5 16.866 5 13V12C5 11.4477 4.55228 11 4 11C3.44772 11 3 11.4477 3 12V13C3 17.9706 7.02944 22 12 22C14.3801 22 16.5449 21.0752 18.1535 19.5677L21.2929 22.7071C21.6834 23.0976 22.3166 23.0976 22.7071 22.7071C23.0976 22.3166 23.0976 21.6834 22.7071 21.2929L2.70711 1.29289Z" fill="#801ED7"/>
<path d="M17 12.7574L8.106 3.86336C9.02254 2.72696 10.4264 2 12 2C14.7614 2 17 4.23858 17 7V12.7574Z" fill="#801ED7"/>
</svg>
